packages/kaspersky-hexa-ui-icons/src/iconsSVGs/48/Tags.svg

<svg width="48" height="48" viewBox="0 0 48 48" fill="none" xmlns="http://www.w3.org/2000/svg">
<path fill-rule="evenodd" clip-rule="evenodd" d="M39 23.7192L41 21.81V26.4277L18.4346 47.9462L1.08105 30.5927L2.71387 28.7353L4.21582 30.0556L3.82129 30.5048L18.4678 45.1513L39 25.5722V23.7192ZM20.167 10.5859L32.4141 22.8329L17.8331 37.4139L5.58594 25.1669L20.167 10.5859ZM29.586 22.833L20.167 13.414L8.41406 25.1669L17.8331 34.5859L29.586 22.833ZM12.293 24.7069L18.293 30.7069L19.707 29.2929L13.707 23.2929L12.293 24.7069ZM15.293 21.7069L21.293 27.7069L22.707 26.2929L16.707 20.2929L15.293 21.7069ZM22.793 23.2069L24.207 21.7929L21.207 18.7929L19.793 20.2069L22.793 23.2069ZM44.6573 13.6571C43.6463 14.6628 42.3829 15.3771 41 15.7248V20.4277L17.9834 42.3984L0.601562 25.0165L22.5723 1.99994H33.7222C36.9627 -0.854233 41.884 -0.619648 44.8384 2.52982C47.7927 5.67928 47.7126 10.6055 44.6573 13.6571ZM39 8.414L34.5859 3.99994H34.5584C33.7536 4.89136 33.238 6.0058 33.0796 7.19623C33.7385 7.36093 34.3419 7.69759 34.8281 8.17182C35.9723 9.31575 36.3147 11.0363 35.6956 12.5311C35.0765 14.0259 33.6179 15.0006 32 15.0006C30.3821 15.0006 28.9235 14.0259 28.3044 12.5311C27.6853 11.0363 28.0277 9.31575 29.1719 8.17182C29.6907 7.66422 30.342 7.31314 31.0513 7.15888C31.1693 6.04529 31.5203 4.96899 32.0815 3.99994H23.4277L3.39844 24.9833L18.0166 39.6015L39 19.5722V8.414ZM30.5859 9.58588C30.2108 9.96085 30 10.4695 30 10.9999C30 11.5304 30.2108 12.039 30.5859 12.414C31.1384 12.9409 31.9385 13.1157 32.6604 12.8674C31.8424 11.8024 31.3076 10.5476 31.106 9.21994C30.9142 9.31332 30.7386 9.43687 30.5859 9.58588ZM34 10.9999C34.0014 10.4692 33.7904 9.96003 33.4141 9.58588C33.343 9.51822 33.2671 9.4558 33.1871 9.39911C33.3396 10.064 33.6056 10.6976 33.9734 11.2722C33.9885 11.1821 33.9973 11.0912 34 10.9999ZM43.2432 12.2431C45.3551 10.1433 45.6013 6.81001 43.8208 4.4227C42.0404 2.03539 38.7753 1.32085 36.1604 2.74628L41 7.58588V13.6447C41.8434 13.3516 42.61 12.8726 43.2432 12.2431Z"  fill="currentColor"/>
</svg>

<svg xmlns="http://www.w3.org/2000/svg" width="48" height="48" fill="none" viewBox="0 0 48 48"><path fill="currentColor" fill-rule="evenodd" d="m39 23.7192 2-1.9092v4.6177L18.4346 47.9462 1.0811 30.5927l1.6328-1.8574 1.502 1.3203-.3946.4492 14.6465 14.6465L39 25.5722zM20.167 10.5859l12.2471 12.247-14.581 14.581-12.2472-12.247zm9.419 12.2471-9.419-9.419L8.414 25.1669l9.4191 9.419zm-17.293 1.8739 6 6 1.414-1.414-6-6zm3-3 6 6 1.414-1.414-6-6zm7.5 1.5 1.414-1.414-3-3-1.414 1.414zm21.8643-9.5498A7.926 7.926 0 0 1 41 15.7248v4.7029L17.9834 42.3984.6016 25.0165 22.5723 1.9999h11.1499c3.2405-2.8541 8.1618-2.6195 11.1162.53s2.8742 8.0756-.1811 11.1272M39 8.414 34.5859 4h-.0275a5.94 5.94 0 0 0-1.4788 3.1962 3.837 3.837 0 0 1 1.7485.9756 4 4 0 1 1-5.6562 0 3.86 3.86 0 0 1 1.8794-1.013A7.98 7.98 0 0 1 32.0815 4h-8.6538L3.3984 24.9833l14.6182 14.6182L39 19.5722zm-8.4141 1.1719a1.9994 1.9994 0 0 0 0 2.8281 2.043 2.043 0 0 0 2.0745.4534 7.946 7.946 0 0 1-1.5544-3.6475 2 2 0 0 0-.5201.366M34 10.9999a1.987 1.987 0 0 0-.5859-1.414 2.04 2.04 0 0 0-.227-.1868 5.94 5.94 0 0 0 .7863 1.8731A2 2 0 0 0 34 10.9999m9.2432 1.2432c2.1119-2.0998 2.3581-5.433.5776-7.8204-1.7804-2.3873-5.0455-3.1018-7.6604-1.6764L41 7.5859v6.0588a5.95 5.95 0 0 0 2.2432-1.4016" clip-rule="evenodd"/></svg>
